packages/IcoMoon/src/ListNumberedIcon/index.svg

<svg version="1.1" xmlns="http://www.w3.org/2000/svg" width="16" height="16" viewBox="0 0 16 16">
<path d="M6 13h10v2h-10zM6 7h10v2h-10zM6 1h10v2h-10zM3 0v4h-1v-3h-1v-1zM2 8.219v0.781h2v1h-3v-2.281l2-0.938v-0.781h-2v-1h3v2.281zM4 11v5h-3v-1h2v-1h-2v-1h2v-1h-2v-1z"></path>
</svg>

<svg xmlns="http://www.w3.org/2000/svg" viewBox="0 0 16 16">
  <path d="M6 13h10v2H6zm0-6h10v2H6zm0-6h10v2H6zM3 0v4H2V1H1V0zM2 8.219V9h2v1H1V7.719l2-.938V6H1V5h3v2.281zM4 11v5H1v-1h2v-1H1v-1h2v-1H1v-1z"/>
</svg>
